X: 130023
M: 6/8
L: 1/8
K: G
(3(d/e/f/) |!segno!\
gfe dcB | ABc BAG | E3 uA2uG | vF2vG AFD |\
gfe dcB | ABc BAG | EFG ABc | BcA G2 H:|
z |\


